X:1
T:Title
%%score { ( 1 4 ) | ( 2 3 5 ) }
L:1/8
M:3/4
K:E
V:1 treble nm="Grand Piano"
V:4 treble 
V:2 bass 
V:3 bass 
V:5 bass 
V:1
 z2 z2[Q:1/4=100] E>F | G3- G/A/ (3GFG | B4 E>F | G4 (3GFE | [DF]4 E>F | G3- G/A/ (3GFG | %6
 B4 E>[EF] | [EG]3- [EG]/[EB]/ [A,DF]>[B,DG] | [G,B,E]4 [F,B,D]>[K:treble][G,E] | %9
 [A,DF]3- [A,DF]/[A,DF]/ [G,E]>[B,DF] | G4 F>G | A3- A/G/ A>[Dc] | B4 (3Bc[Ad] | %13
 [Ge]3- [Ge]/[GB]/ (3[GB][FA][EG] | [Ec]4 [CE]>[^B,EF] | [B,EG]3- [B,EG]/[EB]/ [DF]>[DG] | %16
[M:2/4] E4 |[M:1/4] B>B |[M:3/4] [GB]->[EG-B-] [EGB]>c B>G | [GB]->[EG-B-] [EGB]2 (3Bcd | %20
 [Ge]4 z2 | (3[B,D-B-][DB-][EB-] B2 (3Bcd | [Ge]4 z2 | [Ec]4 z2 | %24
 [B,G]->[B,-EG-] [B,EG]>[EB] [A,DF]>[B,DG] |[M:2/4][K:bass] [E,E]->[E,-CE-] [E,B,E]2 |] %26
V:2
 z2 z2 [E,G,]>[E,A,E] | [E,B,E]3- [E,B,E]/[E,CE]/ (3[E,-B,E-][E,^A,E][E,B,E] | %2
 [E,G,E]4 [E,G,B,]>[E,A,B,] | [E,B,E]4 (3[E,B,E][D,B,][C,^A,] | [B,,B,]4 [E,G,]>[E,A,E] | %5
 [E,B,E]3- [E,B,E]/[E,CE]/ (3[E,-B,E-][E,^A,E][E,B,E] | [E,G,E]4 [C,^A,]>[C,A,] | %7
 [B,,B,]3- [B,,B,]/[B,,G,]/ B,,>B,, | E,4 B,,>B,, | B,,3- B,,/B,,/ B,,>B,, | %10
 [E,B,E]4 [A,B,D]>[G,B,E] | [F,B,D]3- [F,B,D]/[^E,B,D]/ [F,B,D]>[B,,A,] | z2 z2 E2 | %13
 [E,B,]3- [E,B,]/[E,E]/ (3:2:2[E,B,]2 [E,B,] | [A,,A,]4 A,,>A,, | %15
 B,,3- B,,/[B,,G,]/ [B,,A,]>[B,,B,] |[M:2/4] [E,G,B,]4 |[M:1/4][K:treble] G>G | %18
[M:3/4][K:bass] E,>E, E,>[K:treble]A G>E | E,>E, E,2[K:treble] (3:2:2A2 A | %20
 [E,B,]>E, E,>[E,B,] [F,B,]>[F,^A,] | (3z F,G, z2[K:treble] (3:2:2A2 A | %22
 [E,B,]>E, E,>E, (3:2:2[E,B,]2 [E,B,] | [A,,A,]>A,, A,,2 C>C | B,,>B,, B,,>[B,,G,] B,,>B,, | %25
[M:2/4] z z/ A,/ G,2 |] %26
V:3
 x6 | x6 | x6 | x6 | x6 | x6 | x6 | x6 | x6 | x6 | x6 | x6 | [E,G,E]4 (3:2:2[G,B,]2 [F,B,] | x6 | %14
 x6 | x6 |[M:2/4] x4 |[M:1/4][K:treble] x2 |[M:3/4][K:bass] x7/2[K:treble] x5/2 | x4[K:treble] x2 | %20
 x6 | z2 A,2[K:treble] z2 | x6 | x6 | x6 |[M:2/4] E,,4 |] %26
V:4
 x6 | x6 | x6 | x6 | x6 | x6 | x6 | x6 | x11/2[K:treble] x/ | x6 | x6 | x6 | x6 | x6 | x6 | x6 | %16
[M:2/4] x4 |[M:1/4] x2 |[M:3/4] E2 z2 z2 | E2 z2 z2 | z z/ B,/ B,>[Ge] [Fd]>[Ec] | z2 F2 z2 | %22
 z z/ B,/ B,>[EGB] (3[GB][FA][EG] | z z/ A,/ A,2 E>F | E2 z2 z2 |[M:2/4][K:bass] [G,B,]2 z2 |] %26
V:5
 x6 | x6 | x6 | x6 | x6 | x6 | x6 | x6 | x6 | x6 | x6 | x6 | x6 | x6 | x6 | x6 |[M:2/4] x4 | %17
[M:1/4][K:treble] x2 |[M:3/4][K:bass] x7/2[K:treble] x5/2 | x4[K:treble] x2 | x6 | %21
 B,,4[K:treble] z2 | x6 | x6 | x6 |[M:2/4] x4 |] %26

